X: 17
T:Jackson's Shaving Brush. BF11.17
M:6/8
L:1/8
Q:120
C:Browne A hand
S:MS11,c1800.,Browne Coll.,Lakes
R:Jig
O:England
A:Lakes
Z:vmp.Chris Partington
K:G
c|B2AB2G|E2FG3|c2AB2G|c2A Bcd|!
E3-E2G|A2GF2D|EFG AGF|G3G,3:|!
|:d2d def|g3-g3|B2 B Bcd|e3-e3|!
d3E2G|A2GF2D|EFG AGF|G3G,3:|]
